X:1
T:Ti seguo si mia vita
T:Ti seguo si mia vita
T:Giovanni Pietro Biandra
T:Source : Madrigaletti a 1, 2 e 3 voci. Libro primo---Venezia--B.Magni (Gardano)---1626. Editor André Vierendeels (10/03/15).
T:Notes : Original clefs : C3? C3, F4 Figures in BC are notated in original print
C:Giovanni Pietro Biandra
%%score [ 1 2 ] 3
L:1/8
Q:1/4=80
M:4/4
K:C
V:1 treble-8 nm="Tenor 1" snm="T 1"
V:2 treble-8 nm="Tenor 2" snm="T 2"
V:3 bass nm="BC" snm="BC"
V:1
 A4 B3 B | c3 c d2 e2- | ed cB ^c2 d2- | d2 ^c2 d4 | z2 D4 E2- | EE F3 F G2- | GF ED E4 | D4 d4 | %8
w: Ti se- guo|si mia vi- *||* * ta,|ti se-|* guo si mia vi-||ta, an-|
 c4 c2 c2- | c2 c2 B4 | A4 z2 A2 | B2 c2 d4- | d2 e4 ^d2 | e4 z2 B2 | c2 d2 e4 | d4 cB cd | B4 A4 | %17
w: cor ch'af- flit-|* to'e stan-|co, va-|do tra- hen-|* do'il Fian-|co, va-|do tra- hen-|do'il Fian- * * *|* co,|
 z A^FG AdBc | d4- dcBA | f3 e e4 | d2 z ^F G2 F2 | z2 G2 z E A2 | z F _B2 GGcB | AG FE DDdc | %24
w: ch'al- trui fu- ror, ch'al- trui fu-|ror _ men- tre che|m'ur- t'e strin-|ge, e strin- ge|an he- lant|à se- guir- ti'an- co mi|spin- * * * ge, an- co mi|
 BA GF E2 ^F2 | G4 z2 B2- | B2 BB B2 B2 | ^c4 d4 | e4 f4 | e4 d4- | d4 ^c4 | d2 A2 d4 | B2 B2 e4- | %33
w: spin- * * * * *|ge, deh|_ por- tar te- co|an- ch'io|la gra-|ve Cro-||ce po- tes-|si, po- tes-|
 eddc cBBA | A2 ^G2 A4 | z2 A2 e4 | c2 c2 f4 | e4 z4 | z2 E2 A4 | ^F2 F2 B4- | BAAG GFFE | E4 D4 | %42
w: * si co- me pro- v'il duo- lo'a-|tro- * ce,|po- tes-|si, po- tes-|si,|po- tes-|si, po- tes-|* si co- me pro- vo'il duo- lo'a-|tro- *|
 E6 E2 | F6 E2 | E8 | D8 |] %46
w: * ce'il|duo- lo'a-|tro-|ce.|
V:2
 z8 | z8 | z8 | z8 | A4 B3 B | c3 c d2 e2- | ed cB ^c4 | z2 D4 E2- | EE F3 F G2- | G2 A4 ^G2 | %10
w: ||||Fian- co, ch'al-|trui fu- ror, *|* * * * ch'al-|trui fu-|* ror men- tre che||
 A4 A4 | G4 G2 G2- | G2 G2 ^F4 | E2 B2 c2 d2 | e2 d4 c2- | c2 B4 A2- | A2 ^G2 A4 | z ^FDE FBGA | %18
w: m'ur- t'e|strin- ge, e|* strin- ge|an he- lant à|se- guir- ti'an-||* * co|mi spin- ge, an- co mi spin-|
 BdcB e4- | ee d4 ^c2 | dA _B4 A2 | d2 z B e2 z c | f2 dd gf ed | cBAA dc BA | GF EF/G/ A4 | %25
w: ge, deh por- tar te-|* co an- *|ch'io la gra- ve|Cro- ce po- tes-|si, po- tes- si, po- tes- *|* * si, po- tes- si co- *||
 G4 z2 ^G2- | G2 ^GG G2 G2 | A4 B4 | ^c4 d4 | e4 f4 | e8 | d4 z2 A2 | e4 c2 c2 | f4 d4 | z4 z2 A2 | %35
w: me pro-|_ vo'il duo- lo'a- tro-|ce, po-|tes- si|co- me||pro- vo'il|duo- lo'a- tro-|ce, il|duo-|
 d4 B2 B2 | e4- eddc | cBBA A2 ^G2 | A4 z4 | z2 A2 d4- | dccB BAAE | F8 | E2 E2 e4- | e2 d2 d4- | %44
w: lo'a- tro- ce.|||||||||
 d4 ^c4 | d8 |] %46
w: ||
V:3
 D,4 G,3 F, | E,2 F,2 D,2 C,2 | F,3 G, A,2 _B,2 | A,4 D,2 E,2 |"^5    6" ^F,2 D,2 G,,4 | %5
"^5     6" A,,4 _B,,2 G,,2 |"^6" A,,8 |"^9      8         7               6" D,4 B,,2 C,2- | %8
 C,2 D,4 E,2- | E,2 F,2 D,2 E,2 | A,,4 D,4 | B,,2 A,,2 G,,3 A,, | B,,2 C,2 A,,2 B,,2 | E,,8 | %14
 E,,8- | E,,8 | E,,4 A,,4 | D,6 E,2 | B,,4 C,4 | D,4 A,,4 |"^5       6        4    3" D,4 D,4 | %21
 G,,4 C,2 A,,2 | D,2 G,,2 G,,2 A,,2 | A,,4 B,,2 G,,2 |"^5     6" G,,2 C,4 D,2 | G,,4 E,4 | E,8 | %27
 A,,8- | A,,8 | A,,8- | A,,8 | D,8 |"^-natural" E,4 A,,4 |"^-natural" D,4 G,,2 E,,2 | E,,4 A,,4 | %35
 ^F,,4 ^G,,4 |"^-natural""^-natural" A,,4 D,4 | G,,2 F,,2 E,,4 | A,,6 A,,2 | D,4 B,,4 | C,8 | %41
"^9         8" D,8 | A,,8 | %43
"^3      4                                       3""^6                      5" A,,8- | A,,8 | %45
 D,8 |] %46

